crypto/usdc.svg

<svg fill="none" height="32" viewBox="0 0 32 32" width="32" xmlns="http://www.w3.org/2000/svg"><path d="m16 32c8.8366 0 16-7.1634 16-16 0-8.83656-7.1634-16-16-16-8.83656 0-16 7.16344-16 16 0 8.8366 7.16344 16 16 16z" fill="#2775c9"/><path d="m16 28c-6.62808 0-12-5.3719-12-12 0-6.62808 5.37192-12 12-12 6.6281 0 12 5.37192 12 12 0 3.1826-1.2643 6.2348-3.5147 8.4853-2.2505 2.2504-5.3027 3.5147-8.4853 3.5147zm-.7149-16.4528c-.6566.0326-1.2773.3094-1.7402.7761-.4629.4668-.7347 1.0897-.7619 1.7465 0 1.2357.7557 2.0425 2.3591 2.3796l1.1234.2655c1.0928.2553 1.5422.623 1.5422 1.246 0 .6229-.7864 1.2357-1.8077 1.2357-.3628.0333-.7276-.0363-1.0526-.2006-.3251-.1644-.5974-.4169-.7857-.7288-.0558-.1183-.1439-.2185-.2541-.2889-.1102-.0705-.2381-.1084-.3689-.1094h-.6025c-.0464.0086-.0905.0263-.13.052s-.0735.059-.1001.0979-.0452.0827-.0548.1289c-.0096.0461-.01.0937-.0011.14.1468.599.488 1.1325.9704 1.5168.4823.3844 1.0785.598 1.6951.6074v.8579c0 .1909.0759.3741.2109.5091.1351.135.3182.2109.5091.2109.191 0 .3741-.0759.5092-.2109.135-.135.2108-.3182.2108-.5091v-.8681c.6974-.0079 1.364-.2877 1.8581-.7799.494-.4921.7764-1.1577.7871-1.855 0-1.297-.7456-2.0425-2.5124-2.4204l-1.0213-.2247c-1.0212-.2553-1.5012-.5923-1.5012-1.1643 0-.5719.6127-1.2051 1.634-1.2051.3216-.0336.6461.0267.9343.1735.2881.1468.5276.3738.6895.6538.0657.1398.1696.2581.2997.3413.1302.0831.2812.1277.4356.1285h.48c.1092-.0267.2035-.0952.2627-.1907s.0786-.2104.0539-.32c-.1383-.5531-.4478-1.0483-.8843-1.4151s-.9776-.5864-1.5463-.6274v-.7047c0-.191-.0759-.3741-.2109-.5091-.135-.1351-.3181-.2109-.5091-.2109-.1909 0-.3741.0758-.5091.2109-.135.135-.2109.3181-.2109.5091zm-8.28255 4.4528c.00117 1.8813.59334 3.7146 1.69286 5.2411s2.65079 2.669 4.43479 3.2661h.143c.1219 0 .2388-.0484.325-.1346.0861-.0862.1346-.2031.1346-.3249v-.2145c.0003-.1901-.0558-.376-.1613-.5342-.1054-.1582-.2555-.2815-.4311-.3543-1.3893-.5608-2.5794-1.524-3.41739-2.766-.83801-1.2419-1.28576-2.706-1.28576-4.2042 0-1.4983.44775-2.9623 1.28576-4.2043.83799-1.242 2.02809-2.20516 3.41739-2.76595.1748-.071.3245-.19246.43-.34889.1055-.15642.162-.34073.1624-.5294v-.2349c.0006-.06896-.0154-.13707-.0466-.19855-.0313-.06148-.0769-.11451-.133-.1546-.0562-.04009-.1211-.06605-.1894-.07569-.0683-.00963-.1379-.00266-.2029.02033-1.7914.59244-3.35056 1.73424-4.45605 3.26325-1.1055 1.529-1.70113 3.3674-1.7023 5.2542zm17.99485 0c-.0033-1.8795-.5964-3.7106-1.6958-5.235-1.0994-1.52451-2.6495-2.66545-4.4318-3.26202h-.1532c-.1273 0-.2494.05057-.3394.14059-.09.09001-.1406.2121-.1406.33941v.15319c.0041.19697.0651.38855.1757.55164.1105.16308.2658.29072.4473.36751 1.3861.56243 2.573 1.52568 3.4086 2.76648s1.2819 2.7027 1.2819 4.1986c0 1.496-.4463 2.9579-1.2819 4.1987s-2.0225 2.204-3.4086 2.7664c-.178.0776-.3302.2043-.4387.3653s-.1689.3496-.1741.5437v.1736c.0009.0757.0197.1501.0548.2172s.0856.1249.1474.1687c.0617.0438.133.0724.2079.0834.0749.0111.1513.0042.2231-.02 1.7837-.5994 3.334-1.7442 4.4317-3.2726 1.0978-1.5283 1.6874-3.363 1.6857-5.2448z" fill="#fff"/></svg>

<svg width="32" height="32" viewBox="0 0 32 32" fill="none" xmlns="http://www.w3.org/2000/svg">
    <path d="M16 32C24.8366 32 32 24.8366 32 16C32 7.16344 24.8366 0 16 0C7.16344 0 0 7.16344 0 16C0 24.8366 7.16344 32 16 32Z" fill="#2775C9"/>
    <path d="M16 28C9.37192 28 4 22.6281 4 16C4 9.37192 9.37192 4 16 4C22.6281 4 28 9.37192 28 16C28 19.1826 26.7357 22.2348 24.4853 24.4853C22.2348 26.7357 19.1826 28 16 28ZM15.2851 11.5472C14.6285 11.5798 14.0078 11.8566 13.5449 12.3233C13.082 12.7901 12.8102 13.413 12.783 14.0698C12.783 15.3055 13.5387 16.1123 15.1421 16.4494L16.2655 16.7149C17.3583 16.9702 17.8077 17.3379 17.8077 17.9609C17.8077 18.5838 17.0213 19.1966 16 19.1966C15.6372 19.2299 15.2724 19.1603 14.9474 18.996C14.6223 18.8316 14.35 18.5791 14.1617 18.2672C14.1059 18.1489 14.0178 18.0487 13.9076 17.9783C13.7974 17.9078 13.6695 17.8699 13.5387 17.8689H12.9362C12.8898 17.8775 12.8457 17.8952 12.8062 17.9209C12.7667 17.9466 12.7327 17.9799 12.7061 18.0188C12.6795 18.0577 12.6609 18.1015 12.6513 18.1477C12.6417 18.1938 12.6413 18.2414 12.6502 18.2877C12.797 18.8867 13.1382 19.4202 13.6206 19.8045C14.1029 20.1889 14.6991 20.4025 15.3157 20.4119V21.2698C15.3157 21.4607 15.3916 21.6439 15.5266 21.7789C15.6617 21.9139 15.8448 21.9898 16.0357 21.9898C16.2267 21.9898 16.4098 21.9139 16.5449 21.7789C16.6799 21.6439 16.7557 21.4607 16.7557 21.2698V20.4017C17.4531 20.3938 18.1197 20.114 18.6138 19.6218C19.1078 19.1297 19.3902 18.4641 19.4009 17.7668C19.4009 16.4698 18.6553 15.7243 16.8885 15.3464L15.8672 15.1217C14.846 14.8664 14.366 14.5294 14.366 13.9574C14.366 13.3855 14.9787 12.7523 16 12.7523C16.3216 12.7187 16.6461 12.779 16.9343 12.9258C17.2224 13.0726 17.4619 13.2996 17.6238 13.5796C17.6895 13.7194 17.7934 13.8377 17.9235 13.9209C18.0537 14.004 18.2047 14.0486 18.3591 14.0494H18.8391C18.9483 14.0227 19.0426 13.9542 19.1018 13.8587C19.161 13.7632 19.1804 13.6483 19.1557 13.5387C19.0174 12.9856 18.7079 12.4904 18.2714 12.1236C17.8349 11.7568 17.2938 11.5372 16.7251 11.4962V10.7915C16.7251 10.6005 16.6492 10.4174 16.5142 10.2824C16.3792 10.1473 16.1961 10.0715 16.0051 10.0715C15.8142 10.0715 15.631 10.1473 15.496 10.2824C15.361 10.4174 15.2851 10.6005 15.2851 10.7915V11.5472ZM7.00255 16C7.00372 17.8813 7.59589 19.7146 8.69541 21.2411C9.79493 22.7676 11.3462 23.9101 13.1302 24.5072H13.2732C13.3951 24.5072 13.512 24.4588 13.5982 24.3726C13.6843 24.2864 13.7328 24.1695 13.7328 24.0477V23.8332C13.7331 23.6431 13.677 23.4572 13.5715 23.299C13.4661 23.1408 13.316 23.0175 13.1404 22.9447C11.7511 22.3839 10.561 21.4207 9.72301 20.1787C8.885 18.9368 8.43725 17.4727 8.43725 15.9745C8.43725 14.4762 8.885 13.0122 9.72301 11.7702C10.561 10.5282 11.7511 9.56504 13.1404 9.00425C13.3152 8.93325 13.4649 8.81179 13.5704 8.65536C13.6759 8.49894 13.7324 8.31463 13.7328 8.12596V7.89106C13.7334 7.8221 13.7174 7.75399 13.6862 7.69251C13.6549 7.63103 13.6093 7.578 13.5532 7.53791C13.497 7.49782 13.4321 7.47186 13.3638 7.46222C13.2955 7.45259 13.2259 7.45956 13.1609 7.48255C11.3695 8.07499 9.81034 9.21679 8.70485 10.7458C7.59935 12.2748 7.00372 14.1132 7.00255 16ZM24.9974 16C24.9941 14.1205 24.401 12.2894 23.3016 10.765C22.2022 9.24049 20.6521 8.09955 18.8698 7.50298H18.7166C18.5893 7.50298 18.4672 7.55355 18.3772 7.64357C18.2872 7.73358 18.2366 7.85567 18.2366 7.98298V8.13617C18.2407 8.33314 18.3017 8.52472 18.4123 8.68781C18.5228 8.85089 18.6781 8.97853 18.8596 9.05532C20.2457 9.61775 21.4326 10.581 22.2682 11.8218C23.1038 13.0626 23.5501 14.5245 23.5501 16.0204C23.5501 17.5164 23.1038 18.9783 22.2682 20.2191C21.4326 21.4599 20.2457 22.4231 18.8596 22.9855C18.6816 23.0631 18.5294 23.1898 18.4209 23.3508C18.3124 23.5118 18.252 23.7004 18.2468 23.8945V24.0681C18.2477 24.1438 18.2665 24.2182 18.3016 24.2853C18.3367 24.3524 18.3872 24.4102 18.449 24.454C18.5107 24.4978 18.582 24.5264 18.6569 24.5374C18.7318 24.5485 18.8082 24.5416 18.88 24.5174C20.6637 23.918 22.214 22.7732 23.3117 21.2448C24.4095 19.7165 24.9991 17.8818 24.9974 16Z" fill="white"/>
</svg>
